src/assets/icons/heart.svg

<?xml version="1.0" encoding="UTF-8"?>
<svg width="18px" height="16px" viewBox="0 0 18 16" version="1.1" xmlns="http://www.w3.org/2000/svg" xmlns:xlink="http://www.w3.org/1999/xlink">
    <!-- Generator: Sketch 41 (35326) - http://www.bohemiancoding.com/sketch -->
    <title>Heart</title>
    <desc>Created with Sketch.</desc>
    <defs></defs>
    <g id="Styleguide" stroke="none" stroke-width="1" fill="none" fill-rule="evenodd">
        <g id="ICONS" transform="translate(-80.000000, -484.000000)" stroke="#B4C2C8">
            <path d="M89.4694327,485.957586 C89.3305807,486.035915 89.1717643,486.081895 89.0017966,486.081895 C88.7812881,486.081895 88.5782261,486.007564 88.4156326,485.881982 C87.6481697,485.332222 86.7096599,485.007273 85.6956089,485.008 C83.0993289,485.011271 80.9974842,487.141615 81.0000023,489.765017 C81.0061175,495.084879 87.242945,498.21297 88.7064663,498.873591 C88.8028713,498.910302 88.9075499,498.930475 89.0165451,498.930475 C89.1415478,498.930475 89.2208661,498.913028 89.335437,498.863959 C89.3746465,498.846512 89.4169136,498.826884 89.4616987,498.805802 C91.2084997,497.984887 97.0070082,494.878242 96.9999936,489.743753 C96.9963964,487.120352 94.8896955,484.996914 92.2926961,485.000003 C91.2327808,485.000549 90.2552413,485.357302 89.4694327,485.957586 Z" id="Heart"></path>
        </g>
    </g>
</svg>

<svg width="18" height="16" viewBox="0 0 18 16" xmlns="http://www.w3.org/2000/svg"><g id="Styleguide" fill="none" fill-rule="evenodd"><g id="ICONS" transform="translate(-80 -484)" stroke="#B4C2C8"><path d="M89.47 485.958a.948.948 0 0 1-1.054-.076 4.65 4.65 0 0 0-2.72-.874c-2.597.003-4.699 2.134-4.696 4.757.006 5.32 6.243 8.448 7.706 9.109a.87.87 0 0 0 .31.056.715.715 0 0 0 .32-.066 6.64 6.64 0 0 0 .126-.058c1.746-.821 7.545-3.928 7.538-9.062-.004-2.624-2.11-4.747-4.707-4.744-1.06 0-2.038.357-2.824.958z" id="Heart"/></g></g></svg>
